public/assets/home/60fa004b7690e70dded91f9a_light.svg

<svg width="94" height="93" viewBox="0 0 94 93" fill="none" xmlns="http://www.w3.org/2000/svg">
<g filter="url(#filter0_ii)">
<path d="M76.9264 33.5173C76.3568 32.3041 75.0408 31.5187 73.5842 31.5187H56.6045L71.8732 7.95568C72.5324 6.93778 72.5396 5.67857 71.8925 4.65628C71.243 3.6318 70.0409 3 68.737 3H39.6539C38.3281 3 37.1067 3.65374 36.4693 4.70454L9.80968 48.5795C9.19166 49.5974 9.21105 50.8391 9.86542 51.8395C10.5198 52.842 11.7098 53.4562 12.9943 53.4562H29.4142L14.4799 86.2046C13.8135 87.6678 14.3903 89.3526 15.8541 90.2169C16.4649 90.5745 17.1532 90.75 17.8415 90.75C18.8036 90.75 19.761 90.4034 20.4662 89.7365L76.209 37.0865C77.2172 36.1344 77.5008 34.7304 76.9264 33.5173Z" fill="#EDB146"/>
</g>
<path d="M76.9264 33.5173C76.3568 32.3041 75.0408 31.5187 73.5842 31.5187H56.6045L71.8732 7.95568C72.5324 6.93778 72.5396 5.67857 71.8925 4.65628C71.243 3.6318 70.0409 3 68.737 3H39.6539C38.3281 3 37.1067 3.65374 36.4693 4.70454L9.80968 48.5795C9.19166 49.5974 9.21105 50.8391 9.86542 51.8395C10.5198 52.842 11.7098 53.4562 12.9943 53.4562H29.4142L14.4799 86.2046C13.8135 87.6678 14.3903 89.3526 15.8541 90.2169C16.4649 90.5745 17.1532 90.75 17.8415 90.75C18.8036 90.75 19.761 90.4034 20.4662 89.7365L76.209 37.0865C77.2172 36.1344 77.5008 34.7304 76.9264 33.5173Z" stroke="#1F2024" stroke-width="4.49"/>
<defs>
<filter id="filter0_ii" x="7.11499" y="0.754883" width="72.3509" height="92.24" filterUnits="userSpaceOnUse" color-interpolation-filters="sRGB">
<feFlood flood-opacity="0" result="BackgroundImageFix"/>
<feBlend mode="normal" in="SourceGraphic" in2="BackgroundImageFix" result="shape"/>
<feColorMatrix in="SourceAlpha" type="matrix" values="0 0 0 0 0 0 0 0 0 0 0 0 0 0 0 0 0 0 127 0" result="hardAlpha"/>
<feOffset dy="-14.976"/>
<feComposite in2="hardAlpha" operator="arithmetic" k2="-1" k3="1"/>
<feColorMatrix type="matrix" values="0 0 0 0 0 0 0 0 0 0 0 0 0 0 0 0 0 0 0.25 0"/>
<feBlend mode="normal" in2="shape" result="effect1_innerShadow"/>
<feColorMatrix in="SourceAlpha" type="matrix" values="0 0 0 0 0 0 0 0 0 0 0 0 0 0 0 0 0 0 127 0" result="hardAlpha"/>
<feOffset dy="14.976"/>
<feComposite in2="hardAlpha" operator="arithmetic" k2="-1" k3="1"/>
<feColorMatrix type="matrix" values="0 0 0 0 1 0 0 0 0 1 0 0 0 0 1 0 0 0 0.25 0"/>
<feBlend mode="normal" in2="effect1_innerShadow" result="effect2_innerShadow"/>
</filter>
</defs>
</svg>

<svg xmlns="http://www.w3.org/2000/svg" width="94" height="93" fill="none"><g filter="url(#a)"><path fill="#EDB146" d="M76.926 33.517c-.57-1.213-1.885-1.998-3.342-1.998h-16.98l15.27-23.563a3.023 3.023 0 0 0 .019-3.3C71.242 3.632 70.04 3 68.736 3H39.654c-1.326 0-2.547.654-3.185 1.705L9.81 48.579a3.023 3.023 0 0 0 .056 3.26c.655 1.003 1.845 1.617 3.13 1.617h16.42L14.48 86.205c-.667 1.463-.09 3.148 1.374 4.012.61.358 1.3.533 1.988.533.962 0 1.919-.347 2.624-1.013l55.743-52.65c1.008-.953 1.292-2.357.717-3.57Z"/></g><path stroke="#1F2024" stroke-width="4.49" d="M76.926 33.517c-.57-1.213-1.885-1.998-3.342-1.998h-16.98l15.27-23.563a3.023 3.023 0 0 0 .019-3.3C71.242 3.632 70.04 3 68.736 3H39.654c-1.326 0-2.547.654-3.185 1.705L9.81 48.579a3.023 3.023 0 0 0 .056 3.26c.655 1.003 1.845 1.617 3.13 1.617h16.42L14.48 86.205c-.667 1.463-.09 3.148 1.374 4.012.61.358 1.3.533 1.988.533.962 0 1.919-.347 2.624-1.013l55.743-52.65c1.008-.953 1.292-2.357.717-3.57Z"/><defs><filter id="a" width="72.351" height="92.24" x="7.115" y=".755" color-interpolation-filters="sRGB" filterUnits="userSpaceOnUse"><feFlood flood-opacity="0" result="BackgroundImageFix"/><feBlend in="SourceGraphic" in2="BackgroundImageFix" result="shape"/><feColorMatrix in="SourceAlpha" result="hardAlpha" values="0 0 0 0 0 0 0 0 0 0 0 0 0 0 0 0 0 0 127 0"/><feOffset dy="-14.976"/><feComposite in2="hardAlpha" k2="-1" k3="1" operator="arithmetic"/><feColorMatrix values="0 0 0 0 0 0 0 0 0 0 0 0 0 0 0 0 0 0 0.25 0"/><feBlend in2="shape" result="effect1_innerShadow"/><feColorMatrix in="SourceAlpha" result="hardAlpha" values="0 0 0 0 0 0 0 0 0 0 0 0 0 0 0 0 0 0 127 0"/><feOffset dy="14.976"/><feComposite in2="hardAlpha" k2="-1" k3="1" operator="arithmetic"/><feColorMatrix values="0 0 0 0 1 0 0 0 0 1 0 0 0 0 1 0 0 0 0.25 0"/><feBlend in2="effect1_innerShadow" result="effect2_innerShadow"/></filter></defs></svg>
